icons/oral_contraception_pillsx21_fill.svg

<svg width="48" height="48" viewBox="0 0 48 48" fill="none" xmlns="http://www.w3.org/2000/svg">
<path d="M12.599 30.2344L12.6279 30.1092C13.4549 30.4899 14.4653 30.3423 15.15 29.6662C14.6574 30.165 14.4453 30.8366 14.5137 31.4843C13.8615 31.4155 13.1851 31.631 12.6853 32.1308C11.8066 33.0095 11.8066 34.4341 12.6853 35.3128C13.5606 36.1881 14.9775 36.1915 15.857 35.323C14.9885 36.2025 14.992 37.6195 15.8672 38.4947C16.7459 39.3734 18.1705 39.3734 19.0492 38.4947C19.549 37.995 19.7645 37.3185 19.6957 36.6664C20.3478 36.7352 21.0243 36.5197 21.524 36.0199C22.0238 35.5201 22.2393 34.8437 22.1706 34.1916C22.8227 34.2603 23.4991 34.0448 23.9989 33.545C24.4987 33.0452 24.7142 32.3688 24.6454 31.7166C25.2976 31.7855 25.9741 31.57 26.474 31.0701C26.9738 30.5703 27.1893 29.8939 27.1205 29.2418C27.7726 29.3106 28.4491 29.0951 28.9489 28.5953C29.4486 28.0955 29.6642 27.4191 29.5954 26.7669C30.2475 26.8357 30.9239 26.6202 31.4237 26.1204C31.9235 25.6206 32.139 24.9442 32.0702 24.292C32.7223 24.3608 33.3988 24.1453 33.8986 23.6455C34.3983 23.1457 34.6139 22.4693 34.5451 21.8172C35.1972 21.8859 35.8736 21.6704 36.3734 21.1706C36.8732 20.6708 37.0887 19.9944 37.0199 19.3423C37.6721 19.411 38.3485 19.1955 38.8483 18.6957C39.7269 17.8171 39.7269 16.3924 38.8483 15.5138C37.97 14.6355 36.5463 14.6351 35.6675 15.5125C36.545 14.6337 36.5446 13.2101 35.6663 12.3318C34.788 11.4535 33.3642 11.4531 32.4854 12.3307C33.363 11.4519 33.3626 10.0281 32.4843 9.14981C31.6056 8.27113 30.181 8.27113 29.3023 9.14981C28.8025 9.64961 28.587 10.3261 28.6558 10.9782C28.0037 10.9094 27.3272 11.1249 26.8274 11.6247C26.3276 12.1245 26.1121 12.8009 26.1809 13.453C25.5288 13.3843 24.8524 13.5998 24.3526 14.0996C23.8528 14.5994 23.6373 15.2758 23.706 15.9279C23.0539 15.8591 22.3775 16.0746 21.8777 16.5744C21.3779 17.0742 21.1624 17.7507 21.2312 18.4028C20.5791 18.334 19.9026 18.5495 19.4029 19.0493C18.9031 19.5491 18.6876 20.2255 18.7563 20.8777C18.1042 20.8089 17.4278 21.0244 16.928 21.5242C16.4282 22.024 16.2127 22.7004 16.2815 23.3525C15.6294 23.2837 14.9529 23.4993 14.4531 23.999C13.9533 24.4988 13.7378 25.1753 13.8066 25.8274C13.1545 25.7587 12.4781 25.9742 11.9783 26.474C11.2935 27.1587 11.1424 28.1751 11.525 29.0062L11.3998 29.0351L9.10166 29.5654L7.34361 29.9711L8.61941 31.2469L10.3872 33.0147L11.663 34.2905L12.0687 32.5325L12.599 30.2344ZM18.3422 29.6559C17.4669 28.7807 16.05 28.7772 15.1705 29.6457C15.663 29.1469 15.8751 28.4752 15.8068 27.8276C16.4589 27.8963 17.1353 27.6808 17.6351 27.181C18.1349 26.6812 18.3504 26.0048 18.2817 25.3527C18.9338 25.4215 19.6102 25.206 20.11 24.7062C20.6098 24.2064 20.8253 23.53 20.7565 22.8778C21.4086 22.9466 22.085 22.7311 22.5848 22.2313C23.0846 21.7315 23.3001 21.0551 23.2314 20.4029C23.8835 20.4717 24.5599 20.2562 25.0597 19.7564C25.5595 19.2566 25.775 18.5802 25.7062 17.9281C26.3583 17.9968 27.0348 17.7813 27.5345 17.2815C28.0343 16.7818 28.2498 16.1053 28.1811 15.4532C28.8287 15.5215 29.5003 15.3094 29.999 14.817C29.1306 15.6965 29.1341 17.1134 30.0093 17.9886C30.888 18.8673 32.3126 18.8673 33.1913 17.9886C33.6911 17.4888 33.9066 16.8124 33.8378 16.1603C34.4894 16.229 35.1653 16.014 35.665 15.515C35.1661 16.0147 34.951 16.6905 35.0198 17.3421C34.3676 17.2734 33.6912 17.4889 33.1914 17.9887C32.6916 18.4885 32.4761 19.1649 32.5449 19.817C31.8928 19.7482 31.2164 19.9637 30.7166 20.4635C30.2168 20.9633 30.0013 21.6398 30.0701 22.2919C29.4179 22.2231 28.7415 22.4386 28.2417 22.9384C27.7419 23.4382 27.5264 24.1146 27.5952 24.7668C26.9431 24.698 26.2667 24.9135 25.7669 25.4133C25.2671 25.9131 25.0516 26.5895 25.1203 27.2416C24.4682 27.1728 23.7918 27.3884 23.292 27.8881C22.7922 28.388 22.5767 29.0644 22.6455 29.7166C21.9933 29.6477 21.3168 29.8632 20.8169 30.3631C20.3171 30.8629 20.1016 31.5393 20.1704 32.1914C19.5214 32.1229 18.8484 32.336 18.3494 32.8306C19.2208 31.9514 19.2184 30.5322 18.3422 29.6559ZM31.8378 14.1601C31.1901 14.0918 30.5184 14.3039 30.0196 14.7964C30.5121 14.2976 30.7242 13.626 30.6559 12.9783C31.3076 13.047 31.9835 12.8319 32.4832 12.3329C31.9842 12.8326 31.769 13.5085 31.8378 14.1601ZM18.3349 32.8451C17.8402 33.3442 17.6271 34.0173 17.6955 34.6662C17.0479 34.5979 16.3763 34.81 15.8775 35.3025C16.37 34.8037 16.5822 34.1321 16.5138 33.4844C17.1628 33.5529 17.8358 33.3398 18.3349 32.8451ZM7.73549 33.1915C6.56392 32.0199 6.56392 30.1204 7.73549 28.9488L28.9487 7.73561C30.1203 6.56404 32.0198 6.56404 33.1913 7.73561L40.2624 14.8067C41.434 15.9783 41.434 17.8777 40.2624 19.0493L19.0492 40.2625C17.8776 41.4341 15.9781 41.4341 14.8066 40.2625L7.73549 33.1915Z" fill="black" stroke="black" stroke-width="2"/>
</svg>

<svg
  xmlns="http://www.w3.org/2000/svg"
  width="24"
  height="24"
  viewBox="0 0 24 24"
  fill="none"
  stroke="currentColor"
  stroke-width="2"
  stroke-linecap="round"
  stroke-linejoin="round"
>
  <path d="m12.599 30.234.029-.125a2.25 2.25 0 0 0 2.522-.443 2.25 2.25 0 0 0-.636 1.818 2.25 2.25 0 1 0 1.343 3.839 2.25 2.25 0 1 0 3.839 1.343 2.25 2.25 0 0 0 1.828-.646c.5-.5.715-1.176.647-1.828a2.25 2.25 0 0 0 1.828-.647c.5-.5.715-1.176.646-1.828a2.25 2.25 0 0 0 1.829-.647c.5-.5.715-1.176.646-1.828a2.25 2.25 0 0 0 1.829-.647c.5-.5.715-1.176.646-1.828a2.25 2.25 0 0 0 1.829-.647c.5-.5.715-1.176.646-1.828a2.25 2.25 0 0 0 1.829-.647c.5-.5.715-1.176.646-1.828a2.25 2.25 0 0 0 1.828-.646c.5-.5.716-1.177.647-1.829a2.25 2.25 0 1 0-8.364-8.364 2.25 2.25 0 0 0-1.829.647c-.5.5-.715 1.176-.646 1.828a2.25 2.25 0 0 0-1.828.647c-.5.5-.716 1.176-.647 1.828a2.25 2.25 0 0 0-1.828.646c-.5.5-.716 1.177-.647 1.829a2.25 2.25 0 0 0-1.828.646c-.5.5-.715 1.177-.647 1.829a2.25 2.25 0 0 0-1.828.646c-.5.5-.715 1.176-.646 1.828a2.25 2.25 0 0 0-1.829.647c-.5.5-.715 1.176-.646 1.828a2.25 2.25 0 0 0-2.282 3.179l-.125.03-2.298.53-1.758.405 1.275 1.276 1.768 1.768 1.276 1.276.406-1.758zm5.743-.578a2.25 2.25 0 0 0-3.171-.01c.492-.5.704-1.17.636-1.818a2.25 2.25 0 0 0 1.828-.647c.5-.5.715-1.176.647-1.828a2.25 2.25 0 0 0 1.828-.647c.5-.5.715-1.176.646-1.828a2.25 2.25 0 0 0 1.829-.647c.5-.5.715-1.176.646-1.828a2.25 2.25 0 0 0 1.829-.647c.5-.5.715-1.176.646-1.828a2.25 2.25 0 0 0 1.829-.646c.5-.5.715-1.177.646-1.829A2.25 2.25 0 0 0 30 14.817a2.25 2.25 0 1 0 3.839 1.343 2.25 2.25 0 0 0 1.827-.645 2.25 2.25 0 0 0-.645 1.827 2.25 2.25 0 0 0-1.829.647c-.5.5-.715 1.176-.646 1.828a2.25 2.25 0 0 0-1.828.646c-.5.5-.716 1.177-.647 1.829a2.25 2.25 0 0 0-1.828.646c-.5.5-.716 1.177-.647 1.829a2.25 2.25 0 0 0-1.828.646c-.5.5-.715 1.177-.647 1.829a2.25 2.25 0 0 0-1.828.646c-.5.5-.715 1.176-.647 1.829a2.25 2.25 0 0 0-1.828.646c-.5.5-.715 1.176-.647 1.828a2.25 2.25 0 0 0-1.82.64 2.25 2.25 0 0 0-.008-3.175ZM31.838 14.16a2.25 2.25 0 0 0-1.818.636c.492-.498.704-1.17.636-1.818a2.25 2.25 0 0 0 1.827-.645 2.25 2.25 0 0 0-.645 1.827ZM18.335 32.845a2.25 2.25 0 0 0-.64 1.821 2.25 2.25 0 0 0-1.818.637c.493-.5.705-1.17.637-1.819a2.25 2.25 0 0 0 1.82-.639Zm-10.6.346a3 3 0 0 1 0-4.242L28.95 7.736a3 3 0 0 1 4.242 0l7.071 7.07a3 3 0 0 1 0 4.243L19.05 40.263a3 3 0 0 1-4.242 0z" />
</svg>
